X:43
T:Tar Road to Sligo
C:Traditional
M:6/8
R:jig
K:Edor
e | fBB Bcd | eAA BAG | FAA ABc | (cd)d efg |
fBB Bcd | eAA BAG | FAA a2g | fdc d2 :|
B | Aff Aff | fgg efg | add dcd | Bed cBA |
[1 Aff Aff | fgg efg | afe bge | edc d2 :|
[2 fed gfe | afe bge | aaa bag | edc d2 |]

